X:100
T: Pleasant Jig
S: B.Breathnach:"Ceol Rince na hEireann" IV/20 (gan ainm)
Z: B.Black
N: No repeats
L: 1/8
M: 6/8
R: jig
K: D
AGF AGF|Bcd AGF|ABc dAF|GFE D2F|
AGF AGF|Bcd AGF|ABc dAF|GFE D3 ||
f2f a2a|gfe f2d|f2f a2a|gfe d3|
f2f a2a|gfe f2d|f2f a2a|gfe dcB ||
